app/dist/common/images/mueller-water-products.svg

<svg height="18" width="18" xmlns="http://www.w3.org/2000/svg"><path d="m0 0h18v18h-18z" fill="#f0f3fa"/><path d="m4 5a1 1 0 0 1 1-1h8a1 1 0 0 1 1 1v8a1 1 0 0 1 -1 1h-8a1 1 0 0 1 -1-1z" fill="#ee3342"/><path d="m5 6a1 1 0 0 1 1-1h6a1 1 0 0 1 1 1v6a1 1 0 0 1 -1 1h-6a1 1 0 0 1 -1-1z" fill="#f0f3fa"/><path d="m7 7v4h1v-2.5l1 1.5 1-1.5v2.5h1v-4h-1l-1 1.5-1-1.5z" fill="#020303"/></svg>

<!-- by TradingView --><svg width="18" height="18" xmlns="http://www.w3.org/2000/svg"><path fill="#F0F3FA" d="M0 0h18v18H0z"/><path d="M4 5a1 1 0 011-1h8a1 1 0 011 1v8a1 1 0 01-1 1H5a1 1 0 01-1-1V5z" fill="#EE3342"/><path d="M5 6a1 1 0 011-1h6a1 1 0 011 1v6a1 1 0 01-1 1H6a1 1 0 01-1-1V6z" fill="#F0F3FA"/><path d="M7 7v4h1V8.5L9 10l1-1.5V11h1V7h-1L9 8.5 8 7H7z" fill="#020303"/></svg>
